X:1
T: Cutty Clay
C:
R:Reel
Q: 232
K:F
M:4/4
L:1/8
|:c2 cd cB AB|cf ef gf ed|c2 cd cB AB|G^F GA B=B dc|
c2 cd cB AB|cf ef gf ed|c2 cd cB AB|G^F GA B=B dc|
fa ga fc Ac|fa ga ba ga|fa ga fc Ac|BA GA Bc de|
fa ga fc Ac|fa ga ba ga|bg af ge fd|cd ag f2 f2:|
